symbolic/16x16/apps/argouml.svg

<svg xmlns="http://www.w3.org/2000/svg" width="16" height="16" version="1.1">
 <path style="fill:#bcbcbc;fill-rule:evenodd" d="m 0.6933262,7.0000133 c -0.55840884,0.0028 -0.88608993,0.6332709 -0.5698804,1.0964821 L 3.9489119,13.696485 C 4.0786828,13.886492 4.2930934,14.000009 4.5221887,14 l 6.9553933,0 c 0.229095,9e-6 0.443506,-0.113508 0.573277,-0.303515 l 3.825466,-5.5999896 c 0.333917,-0.489707 -0.05165,-1.1490878 -0.639163,-1.0930638 l -7.237277,-0.00342 -7.2372766,0.00342 c -0.023023,-0.0023 -0.046146,-0.00342 -0.0692822,-0.00342 z"/>
 <path style="opacity:0.3;fill-rule:evenodd" d="M 0.76443517,7.0038111 7.9997811,9 15.235127,7.0038111 7.9997811,7 Z"/>
 <path style="fill:#bcbcbc;fill-rule:evenodd" d="m 8.0242793,2.0004381 c -0.2421087,-0.0085 -0.4697639,0.1072821 -0.59311,0.3016492 L 3.1401458,9.0705595 C 2.8447802,9.5362559 3.291508,10.105039 3.8570357,9.983318 L 7.9997811,9 12.142527,9.983318 c 0.565527,0.121721 1.012255,-0.4470621 0.716889,-0.9127585 L 8.5683932,2.3020873 C 8.4539426,2.1217576 8.2489182,2.0080948 8.0242793,2.0004381 Z"/>
 <path style="opacity:0.3;fill-rule:evenodd" d="M 8.0000001,2.5 9.176,9.8102541 C 8.8342055,9.4928766 8,9 8,9 l 0,0 z"/>
 <path style="fill:#b2bfd9;fill-rule:evenodd" d="m 0.6945069,7.0000133 c -0.55831952,0.0028 -0.88600011,0.6335746 -0.56984113,1.0967859 L 3.9491477,13.696181 C 4.078898,13.886188 4.2936499,14.000009 4.5227087,14 L 7.9997811,9 0.76369126,7.0038111 c -0.0230196,-0.0023 -0.0460518,-0.00381 -0.0691844,-0.00381 z M 7.9997811,9 11.476853,14 c 0.229059,9e-6 0.443811,-0.113812 0.573561,-0.303819 l 3.824482,-5.5993818 c 0.316159,-0.4632113 -0.01152,-1.0939859 -0.56984,-1.0967859 -0.02313,-3.89e-5 -0.04616,0.00152 -0.06919,0.00381 z"/>
</svg>

<svg xmlns="http://www.w3.org/2000/svg" width="16" height="16"><path style="fill:#bcbcbc;fill-rule:evenodd" d="M.693 7a.7.7 0 0 0-.57 1.096l3.826 5.6c.13.19.344.304.573.304h6.956c.229 0 .443-.114.573-.304l3.825-5.6c.334-.49-.051-1.149-.639-1.093L8 7l-7.237.003A.697.697 0 0 0 .693 7z"/><path style="opacity:.3;fill-rule:evenodd" d="M.764 7.004 8 9l7.235-1.996L8 7z"/><path style="fill:#bcbcbc;fill-rule:evenodd" d="M8.024 2a.673.673 0 0 0-.593.302l-4.29 6.769c-.296.465.15 1.034.716.912L8 9l4.143.983c.565.122 1.012-.447.716-.912L8.57 2.302A.67.67 0 0 0 8.023 2z"/><path style="opacity:.3;fill-rule:evenodd" d="m8 2.5 1.176 7.31C8.834 9.493 8 9 8 9z"/><path style="fill:#b2bfd9;fill-rule:evenodd" d="M.695 7a.7.7 0 0 0-.57 1.097l3.824 5.6c.13.19.345.303.574.303L8 9 .764 7.004A.695.695 0 0 0 .694 7zM8 9l3.477 5c.229 0 .444-.114.573-.304l3.825-5.6a.7.7 0 0 0-.64-1.092z"/></svg>
